source/icon/workshops.svg

<svg fill="none" height="72" width="72" xmlns="http://www.w3.org/2000/svg"><path d="m12 68a8 8 0 0 1 -8-8v-12h20v20zm14 0v-20h20v20zm-2-22h-20v-20h20zm2-20v20h20v-20zm22 42v-20h20v12a8 8 0 0 1 -8 8zm0-22v-20h20v20zm-44-34v12h64v-12a8 8 0 0 0 -8-8h-48a8 8 0 0 0 -8 8zm9 4a2 2 0 0 1 0-4h46a2 2 0 0 1 0 4z" fill="#475497"/></svg>

<svg fill="none" height="72" width="72" xmlns="http://www.w3.org/2000/svg"><path d="M12 68a8 8 0 0 1-8-8V48h20v20zm14 0V48h20v20zm-2-22H4V26h20zm2-20v20h20V26zm22 42V48h20v12a8 8 0 0 1-8 8zm0-22V26h20v20zM4 12v12h64V12a8 8 0 0 0-8-8H12a8 8 0 0 0-8 8zm9 4a2 2 0 0 1 0-4h46a2 2 0 0 1 0 4z" fill="#475497"/></svg>
